public/assets/icons/back.svg

<svg width="20" height="20" viewBox="0 0 20 20" fill="none" xmlns="http://www.w3.org/2000/svg">
<path fill-rule="evenodd" clip-rule="evenodd" d="M8.10501 3.84001C8.0943 3.84953 8.08357 3.85908 8.0728 3.86865L4.72795 6.84185C4.10383 7.39659 3.58645 7.85646 3.23121 8.27392C2.85785 8.71268 2.592 9.18505 2.592 9.76958C2.592 10.3541 2.85785 10.8265 3.2312 11.2652C3.58644 11.6827 4.10382 12.1426 4.72795 12.6973L8.0728 15.6705C8.08357 15.6801 8.09431 15.6896 8.10501 15.6992C8.37537 15.9395 8.62769 16.1639 8.84568 16.3078C9.05974 16.4492 9.449 16.6545 9.88506 16.4586C10.3211 16.2628 10.4263 15.8355 10.4629 15.5816C10.5001 15.3231 10.5001 14.9854 10.5 14.6236C10.5 14.6093 10.5 14.5949 10.5 14.5805V13.2734C11.7096 13.3568 12.9353 13.678 14.0075 14.2005C15.2683 14.8148 16.2752 15.6859 16.8216 16.7268C16.9553 16.9814 17.2454 17.1119 17.5246 17.0431C17.8038 16.9742 18 16.7238 18 16.4362C18 12.5021 16.8489 9.94047 15.2029 8.36562C13.7682 6.99291 12.0197 6.42964 10.5 6.31176V4.95862C10.5 4.94422 10.5 4.92985 10.5 4.91552C10.5001 4.55375 10.5001 4.2161 10.4629 3.95756C10.4263 3.70366 10.3211 3.27634 9.88506 3.08052C9.449 2.8847 9.05974 3.09 8.84568 3.23133C8.62769 3.37526 8.37537 3.59962 8.10501 3.84001ZM9.24744 4.50038C9.15322 4.58113 9.04072 4.68072 8.90326 4.80291L5.59301 7.74535C4.92544 8.33875 4.475 8.74108 4.18319 9.084C3.90295 9.41334 3.842 9.60567 3.842 9.76958C3.842 9.93349 3.90294 10.1258 4.18318 10.4552C4.475 10.7981 4.92543 11.2004 5.59301 11.7938L8.90326 14.7363C9.04072 14.8584 9.15322 14.958 9.24744 15.0388C9.24969 14.9147 9.25 14.7645 9.25 14.5805V12.6267C9.25 12.2815 9.52982 12.0017 9.875 12.0017C11.4688 12.0017 13.125 12.38 14.555 13.0768C15.3207 13.4499 16.0335 13.9205 16.6384 14.4836C16.3311 11.9444 15.423 10.3062 14.3388 9.26879C12.9887 7.97706 11.283 7.53744 9.875 7.53744C9.52982 7.53744 9.25 7.25762 9.25 6.91244V4.95862C9.25 4.7747 9.24969 4.62445 9.24744 4.50038Z" fill="#877EFF"/>
</svg>

<svg width="20" height="20" viewBox="0 0 20 20" fill="none" xmlns="http://www.w3.org/2000/svg"><path fill-rule="evenodd" clip-rule="evenodd" d="m8.105 3.84-.032.029-3.345 2.973c-.624.555-1.142 1.014-1.497 1.432-.373.439-.639.911-.639 1.496 0 .584.266 1.056.64 1.495.354.418.872.878 1.496 1.432l3.345 2.974.032.028c.27.24.523.465.74.609.215.141.604.346 1.04.15s.541-.622.578-.876c.037-.259.037-.597.037-.958v-1.351a9.6 9.6 0 0 1 3.508.928c1.26.614 2.267 1.485 2.814 2.526a.625.625 0 0 0 1.178-.29c0-3.935-1.151-6.497-2.797-8.071C13.768 6.993 12.02 6.43 10.5 6.312V4.916c0-.362 0-.7-.037-.958-.037-.254-.142-.682-.578-.877-.436-.196-.825.009-1.04.15-.217.144-.47.369-.74.609m1.142.66q-.139.12-.344.303l-3.31 2.942c-.668.594-1.118.996-1.41 1.339-.28.33-.341.522-.341.686 0 .163.06.356.341.685.292.343.742.745 1.41 1.339l3.31 2.942q.205.182.344.303.004-.184.003-.458v-1.954c0-.346.28-.625.625-.625 1.594 0 3.25.378 4.68 1.075a8.6 8.6 0 0 1 2.083 1.407c-.307-2.54-1.215-4.178-2.3-5.215-1.35-1.292-3.055-1.732-4.463-1.732a.625.625 0 0 1-.625-.625V4.96q0-.274-.003-.459" fill="#877EFF"/></svg>
